X:75
T:Cattle In The Cane
C:Traditional - Baldassari
N:Transcribed by Larry Tanner
R:bluegrass
L:1/8
Q:1/4=220
M:4/4
K:A
|: "A"cd ef ec Ac | ec ef =gf ec | "G"BA Bc de dB | =GB eB dA cd | "A"ec ef ec Ac | 
|ec ef =gf eg | (3"G"f=gf e=c (3BcB AF | "E"EF GB "A"A4 :|
|: "Am"e'4 a4 | =CE DC A,=G, A,B, | "C"=CB, CD E=G AB | =cB cd ed cA | 
|"Am"=cd ea =gb ag | e=g e^d =d=c A=G | "C"AB =cA "E"BA =GE | "Am"A=G E=C A,4 :| 

